gdscript/src/main/resources/icons/godot_editor/BoneMapHumanRightHand.svg

<svg width="256" height="256" viewBox="0 0 256 256" fill="none" xmlns="http://www.w3.org/2000/svg"><g clip-path="url(#clip0_1451_464)"><path d="M0 0H256V256H0V0Z" fill="#3F3F3F"/><path d="M80.0233 196.525C78.2618 179.792 72.9896 158.184 75.3911 131.477C75.6768 128.299 76.5161 119.406 76.5061 110.794C76.4998 105.5 77.0338 98.6674 76.9998 94.7501C76.9581 89.9169 77.1068 84.3541 77.1561 80.8114C77.4191 61.9514 80.4623 59.3546 84.8593 59.3546C89.1708 59.3546 91.5518 62.9211 91.6248 80.5001C91.6401 84.1051 91.4998 93.2501 91.4998 95.1251C91.4998 99.5021 91.5831 103.667 91.4998 108.5C91.3881 114.989 92.5696 125.5 93.7498 125.5C94.7253 125.5 95.7746 115.675 96.1436 106.25C96.3326 101.419 96.9483 91.6664 96.7935 88.7249C96.3538 80.3716 96.6751 73.9964 96.4093 66.1836C95.6136 42.7819 99.6633 38.2514 105.083 38.2514C110.576 38.2514 114.078 52.6734 113.795 66.8074C113.763 68.4059 114.087 79.4921 113.748 89.2721C113.56 94.7249 114.016 101.679 114.169 106.69C114.443 115.632 115.608 122.664 116.386 122.664C117.047 122.664 117.42 114.518 117.75 106.237C117.965 100.848 118.867 91.6179 118.666 85.3331C118.195 70.5801 118.951 57.7766 118.932 54.9579C118.773 31.2191 122.597 24.1826 127.945 24.1826C133.314 24.1826 137.242 31.7306 137.095 55.0184C137.078 57.6509 137.75 79.9999 137.535 85.4724C137.319 90.9704 138.228 101.738 138.414 106.677C138.739 115.307 140.037 122.664 140.695 122.664C141.515 122.664 143.394 116.254 143.626 107.422C143.773 101.854 143.318 94.6749 143.47 89.7504C143.784 79.5736 144.264 73.5926 144.439 64.8234C144.926 40.5279 148.527 38.2511 153.975 38.2511C158.464 38.2511 162.088 45.4194 162.139 67.0086C162.155 73.9341 162.746 82.6651 162.218 90.5909C162.016 93.6111 162.373 101.219 162.686 109.064C162.886 114.066 162.962 120.94 162.971 125.008C163.013 144.657 169.649 158.364 172.11 157.835C179.693 156.205 185.022 146.856 189.914 128.508C192.552 118.617 199.081 110.721 207.389 109.055C213.864 107.757 212.335 120.595 207.719 140.378C205.557 149.645 200.742 161.935 197.827 171.042C189.914 195.771 166.434 218.183 157.602 228.179C153.315 233.029 98.3783 233.029 91.4543 228.179C88.5731 226.161 80.6826 202.789 80.0233 196.525Z" fill="#B2B2B2"/></g><defs><clipPath id="clip0_1451_464"><rect width="256" height="256" fill="white"/></clipPath></defs></svg>

<svg width="256" height="256" viewBox="0 0 256 256" xmlns="http://www.w3.org/2000/svg"><path d="M0 0h256v256H0V0Z" fill="#3f3f3f"/><path d="M80.023 196.525c-1.761-16.733-7.033-38.341-4.632-65.048.286-3.178 1.125-12.071 1.115-20.683-.006-5.294.528-12.127.494-16.044-.042-4.833.107-10.396.156-13.939.263-18.86 3.306-21.456 7.703-21.456 4.312 0 6.693 3.566 6.766 21.145.015 3.605-.125 12.75-.125 14.625 0 4.377.083 8.542 0 13.375-.112 6.489 1.07 17 2.25 17 .975 0 2.025-9.825 2.394-19.25.189-4.831.804-14.584.65-17.525-.44-8.353-.119-14.729-.385-22.541-.795-23.402 3.254-27.933 8.674-27.933 5.493 0 8.995 14.422 8.712 28.556-.032 1.599.292 12.685-.047 22.465-.188 5.453.268 12.407.421 17.418.274 8.942 1.439 15.974 2.217 15.974.661 0 1.034-8.146 1.364-16.427.215-5.389 1.117-14.62.916-20.904-.471-14.753.285-27.556.266-30.375-.159-23.739 3.665-30.775 9.013-30.775 5.369 0 9.297 7.548 9.15 30.835-.017 2.633.655 24.982.44 30.454-.216 5.498.693 16.266.879 21.205.325 8.63 1.623 15.987 2.281 15.987.82 0 2.699-6.41 2.931-15.242.147-5.568-.308-12.747-.156-17.672.314-10.176.794-16.157.969-24.927.487-24.295 4.088-26.572 9.536-26.572 4.489 0 8.113 7.168 8.164 28.758.016 6.925.607 15.656.079 23.582-.202 3.02.155 10.628.468 18.473.2 5.002.276 11.876.285 15.944.042 19.649 6.678 33.356 9.139 32.827 7.583-1.63 12.912-10.979 17.804-29.327 2.638-9.891 9.167-17.787 17.475-19.453 6.475-1.298 4.946 11.54.33 31.323-2.162 9.267-6.977 21.557-9.892 30.664-7.913 24.729-31.393 47.141-40.225 57.137-4.287 4.85-59.224 4.85-66.148 0-2.88-2.018-10.771-25.39-11.43-31.654Z" fill="#b2b2b2"/></svg>
